build/img/icons/download.svg

<svg xmlns="http://www.w3.org/2000/svg" width="144" height="144" viewBox="0 0 144 144" fill="none"> <circle cx="71.78" cy="71.78" r="71.78" fill="#FFD600"/> <path d="M41.041 84.3018C41.041 84.9788 41.1582 85.6038 41.3926 86.1768C41.627 86.7497 41.9329 87.2477 42.3105 87.6709C42.6947 88.0876 43.1309 88.4131 43.6191 88.6475C44.1139 88.8818 44.6217 88.999 45.1426 88.999C45.6243 88.999 46.0573 88.9307 46.4414 88.7939C46.832 88.6507 47.1738 88.4554 47.4668 88.208C47.7598 87.9606 48.0007 87.6742 48.1895 87.3486C48.3848 87.0231 48.5345 86.6748 48.6387 86.3037H50.6406C50.4909 86.9027 50.2565 87.4691 49.9375 88.0029C49.6185 88.5368 49.2214 89.0055 48.7461 89.4092C48.2773 89.8063 47.7402 90.1221 47.1348 90.3564C46.5293 90.5843 45.8652 90.6982 45.1426 90.6982C44.3418 90.6982 43.5768 90.5355 42.8477 90.21C42.125 89.8844 41.4902 89.432 40.9434 88.8525C40.3965 88.2731 39.9603 87.596 39.6348 86.8213C39.3092 86.0465 39.1465 85.2067 39.1465 84.3018C39.1465 83.4098 39.3092 82.5732 39.6348 81.792C39.9603 81.0107 40.3965 80.3304 40.9434 79.751C41.4902 79.1715 42.125 78.7191 42.8477 78.3936C43.5768 78.068 44.3418 77.9053 45.1426 77.9053C45.8327 77.9053 46.4772 78.0225 47.0762 78.2568C47.6816 78.4847 48.2122 78.8005 48.668 79.2041C49.1302 79.6012 49.5208 80.0667 49.8398 80.6006C50.1654 81.1344 50.3997 81.7008 50.543 82.2998H48.541C48.4368 81.9287 48.2871 81.5804 48.0918 81.2549C47.8965 80.9229 47.6556 80.6364 47.3691 80.3955C47.0827 80.1481 46.7539 79.9561 46.3828 79.8193C46.0117 79.6761 45.5983 79.6045 45.1426 79.6045C44.6217 79.6045 44.1139 79.7217 43.6191 79.9561C43.1309 80.1839 42.6947 80.5094 42.3105 80.9326C41.9329 81.3493 41.627 81.8473 41.3926 82.4268C41.1582 82.9997 41.041 83.6247 41.041 84.3018ZM57.8379 90.6006L54.332 86.3037V90.6006H52.5352V81.5967H54.332V85.5029L57.4375 81.5967H59.5371L56.041 85.7959L60.0352 90.6006H57.8379ZM64.5273 81.499C65.0482 81.499 65.5234 81.5837 65.9531 81.7529C66.3893 81.9157 66.7604 82.1403 67.0664 82.4268C67.3724 82.7132 67.61 83.0518 67.7793 83.4424C67.9486 83.8265 68.0332 84.2464 68.0332 84.7021V90.6006H66.7344L66.334 89.7021C66.1582 89.891 65.9499 90.057 65.709 90.2002C65.4941 90.3304 65.224 90.4476 64.8984 90.5518C64.5729 90.6494 64.1823 90.6982 63.7266 90.6982C62.724 90.6982 61.9557 90.4508 61.4219 89.9561C60.8945 89.4548 60.6309 88.8037 60.6309 88.0029C60.6309 87.5472 60.7155 87.137 60.8848 86.7725C61.0605 86.4014 61.3568 86.0889 61.7734 85.835C62.1966 85.5745 62.7663 85.3727 63.4824 85.2295C64.2051 85.0798 65.1198 85.0049 66.2266 85.0049V84.7021C66.2266 84.2464 66.0833 83.8818 65.7969 83.6084C65.5104 83.335 65.0872 83.1982 64.5273 83.1982C63.9284 83.1982 63.4922 83.3057 63.2188 83.5205C62.9453 83.7354 62.7826 83.9958 62.7305 84.3018H60.9336C60.9857 83.501 61.321 82.8337 61.9395 82.2998C62.5579 81.766 63.4206 81.499 64.5273 81.499ZM63.834 89.0967C64.5957 89.0967 65.1849 88.9014 65.6016 88.5107C66.0182 88.1201 66.2266 87.6449 66.2266 87.085V86.5967C65.4258 86.5967 64.778 86.6357 64.2832 86.7139C63.7949 86.7855 63.4108 86.8864 63.1309 87.0166C62.8509 87.1403 62.6621 87.2965 62.5645 87.4854C62.4733 87.6676 62.4277 87.8727 62.4277 88.1006C62.4277 88.3545 62.5482 88.5856 62.7891 88.7939C63.0299 88.9958 63.3783 89.0967 63.834 89.0967ZM77.4277 81.5967V90.6006H75.6309V87.3975C75.403 87.5146 75.1621 87.6156 74.9082 87.7002C74.6803 87.7783 74.4134 87.8499 74.1074 87.915C73.8014 87.9736 73.4759 88.0029 73.1309 88.0029C72.6491 88.0029 72.2129 87.9281 71.8223 87.7783C71.4316 87.6221 71.0964 87.3975 70.8164 87.1045C70.5365 86.8115 70.3184 86.4665 70.1621 86.0693C70.0059 85.6657 69.9277 85.21 69.9277 84.7021V81.5967H71.7344V84.7021C71.7344 85.21 71.8939 85.6201 72.2129 85.9326C72.5319 86.2451 72.9714 86.4014 73.5312 86.4014C73.8372 86.4014 74.1172 86.3721 74.3711 86.3135C74.625 86.2484 74.8464 86.1768 75.0352 86.0986C75.263 86.0205 75.4616 85.9196 75.6309 85.7959V81.5967H77.4277ZM83.3359 81.499C83.8568 81.499 84.332 81.5837 84.7617 81.7529C85.1979 81.9157 85.569 82.1403 85.875 82.4268C86.181 82.7132 86.4186 83.0518 86.5879 83.4424C86.7572 83.8265 86.8418 84.2464 86.8418 84.7021V90.6006H85.543L85.1426 89.7021C84.9668 89.891 84.7585 90.057 84.5176 90.2002C84.3027 90.3304 84.0326 90.4476 83.707 90.5518C83.3815 90.6494 82.9909 90.6982 82.5352 90.6982C81.5326 90.6982 80.7643 90.4508 80.2305 89.9561C79.7031 89.4548 79.4395 88.8037 79.4395 88.0029C79.4395 87.5472 79.5241 87.137 79.6934 86.7725C79.8691 86.4014 80.1654 86.0889 80.582 85.835C81.0052 85.5745 81.5749 85.3727 82.291 85.2295C83.0137 85.0798 83.9284 85.0049 85.0352 85.0049V84.7021C85.0352 84.2464 84.8919 83.8818 84.6055 83.6084C84.319 83.335 83.8958 83.1982 83.3359 83.1982C82.737 83.1982 82.3008 83.3057 82.0273 83.5205C81.7539 83.7354 81.5911 83.9958 81.5391 84.3018H79.7422C79.7943 83.501 80.1296 82.8337 80.748 82.2998C81.3665 81.766 82.2292 81.499 83.3359 81.499ZM82.6426 89.0967C83.4043 89.0967 83.9935 88.9014 84.4102 88.5107C84.8268 88.1201 85.0352 87.6449 85.0352 87.085V86.5967C84.2344 86.5967 83.5866 86.6357 83.0918 86.7139C82.6035 86.7855 82.2194 86.8864 81.9395 87.0166C81.6595 87.1403 81.4707 87.2965 81.373 87.4854C81.2819 87.6676 81.2363 87.8727 81.2363 88.1006C81.2363 88.3545 81.3568 88.5856 81.5977 88.7939C81.8385 88.9958 82.1868 89.0967 82.6426 89.0967ZM88.043 81.5967H95.4355V83.2959H92.6426V90.6006H90.8359V83.2959H88.043V81.5967ZM100.943 84.6045C101.399 84.6045 101.816 84.6826 102.193 84.8389C102.577 84.9886 102.906 85.1969 103.18 85.4639C103.453 85.7308 103.665 86.0465 103.814 86.4111C103.971 86.7757 104.049 87.1729 104.049 87.6025C104.049 88.0322 103.971 88.4294 103.814 88.7939C103.665 89.1585 103.453 89.4743 103.18 89.7412C102.906 90.0081 102.577 90.2197 102.193 90.376C101.816 90.5257 101.399 90.6006 100.943 90.6006H96.9492V81.5967H98.7461V84.6045H100.943ZM100.943 88.9014C101.288 88.9014 101.591 88.7712 101.852 88.5107C102.118 88.2503 102.252 87.9476 102.252 87.6025C102.252 87.2575 102.122 86.9548 101.861 86.6943C101.601 86.4339 101.295 86.3037 100.943 86.3037H98.7461V88.9014H100.943ZM51.9492 98.5967V107.601H50.1523V100.296H45.8457V107.601H44.0488V98.5967H51.9492ZM58.6387 98.499C59.2376 98.499 59.7975 98.613 60.3184 98.8408C60.8392 99.0687 61.2949 99.3877 61.6855 99.7979C62.0827 100.201 62.3919 100.683 62.6133 101.243C62.8346 101.803 62.9453 102.422 62.9453 103.099C62.9453 103.776 62.8346 104.397 62.6133 104.964C62.3919 105.524 62.0827 106.009 61.6855 106.419C61.2949 106.823 60.8392 107.138 60.3184 107.366C59.7975 107.588 59.2376 107.698 58.6387 107.698C58.209 107.698 57.8411 107.649 57.5352 107.552C57.2292 107.454 56.972 107.337 56.7637 107.2C56.5228 107.05 56.3145 106.884 56.1387 106.702V110.804H54.3418V98.5967H55.6406L56.041 99.5049C56.2168 99.3161 56.4219 99.1468 56.6562 98.9971C56.8711 98.8799 57.1413 98.7692 57.4668 98.665C57.7923 98.5544 58.1829 98.499 58.6387 98.499ZM58.541 105.999C58.8861 105.999 59.2148 105.931 59.5273 105.794C59.8398 105.651 60.1165 105.449 60.3574 105.188C60.5983 104.928 60.7871 104.622 60.9238 104.271C61.0671 103.919 61.1387 103.528 61.1387 103.099C61.1387 102.669 61.0671 102.278 60.9238 101.927C60.7871 101.575 60.5983 101.269 60.3574 101.009C60.1165 100.748 59.8398 100.55 59.5273 100.413C59.2148 100.27 58.8861 100.198 58.541 100.198C58.196 100.198 57.8639 100.27 57.5449 100.413C57.2324 100.55 56.9557 100.748 56.7148 101.009C56.4805 101.269 56.2917 101.578 56.1484 101.937C56.0117 102.288 55.9434 102.675 55.9434 103.099C55.9434 103.528 56.0117 103.919 56.1484 104.271C56.2917 104.622 56.4805 104.928 56.7148 105.188C56.9557 105.449 57.2324 105.651 57.5449 105.794C57.8639 105.931 58.196 105.999 58.541 105.999ZM71.1484 103.099C71.1484 102.669 71.0768 102.278 70.9336 101.927C70.7969 101.575 70.6146 101.269 70.3867 101.009C70.1589 100.748 69.8919 100.55 69.5859 100.413C69.2799 100.27 68.9674 100.198 68.6484 100.198C68.3294 100.198 68.0169 100.27 67.7109 100.413C67.4049 100.55 67.138 100.748 66.9102 101.009C66.6823 101.269 66.4967 101.578 66.3535 101.937C66.2168 102.288 66.1484 102.675 66.1484 103.099C66.1484 103.528 66.2168 103.919 66.3535 104.271C66.4967 104.622 66.6823 104.928 66.9102 105.188C67.138 105.449 67.4049 105.651 67.7109 105.794C68.0169 105.931 68.3294 105.999 68.6484 105.999C68.9674 105.999 69.2799 105.931 69.5859 105.794C69.8919 105.651 70.1589 105.449 70.3867 105.188C70.6146 104.928 70.7969 104.622 70.9336 104.271C71.0768 103.919 71.1484 103.528 71.1484 103.099ZM72.9453 103.099C72.9453 103.776 72.8346 104.397 72.6133 104.964C72.3984 105.524 72.0924 106.009 71.6953 106.419C71.3047 106.823 70.849 107.138 70.3281 107.366C69.8073 107.588 69.2474 107.698 68.6484 107.698C68.0495 107.698 67.4896 107.588 66.9688 107.366C66.4479 107.138 65.9889 106.823 65.5918 106.419C65.2012 106.009 64.8952 105.524 64.6738 104.964C64.459 104.404 64.3516 103.782 64.3516 103.099C64.3516 102.422 64.459 101.803 64.6738 101.243C64.8952 100.683 65.2012 100.201 65.5918 99.7979C65.9889 99.3877 66.4479 99.0687 66.9688 98.8408C67.4896 98.613 68.0495 98.499 68.6484 98.499C69.2474 98.499 69.8073 98.613 70.3281 98.8408C70.849 99.0687 71.3047 99.3877 71.6953 99.7979C72.0924 100.201 72.3984 100.683 72.6133 101.243C72.8346 101.803 72.9453 102.422 72.9453 103.099ZM82.6523 105.003C82.5026 105.374 82.3138 105.722 82.0859 106.048C81.8581 106.373 81.5846 106.66 81.2656 106.907C80.9466 107.155 80.5755 107.35 80.1523 107.493C79.7357 107.63 79.2669 107.698 78.7461 107.698C78.1471 107.698 77.5872 107.588 77.0664 107.366C76.5456 107.138 76.0898 106.823 75.6992 106.419C75.3086 106.009 75.0026 105.524 74.7812 104.964C74.5599 104.404 74.4492 103.782 74.4492 103.099C74.4492 102.422 74.5599 101.803 74.7812 101.243C75.0026 100.683 75.3021 100.201 75.6797 99.7979C76.0573 99.3877 76.5033 99.0687 77.0176 98.8408C77.5319 98.613 78.0755 98.499 78.6484 98.499C79.2214 98.499 79.765 98.613 80.2793 98.8408C80.7936 99.0687 81.2396 99.3877 81.6172 99.7979C81.9948 100.201 82.2943 100.683 82.5156 101.243C82.737 101.803 82.8477 102.422 82.8477 103.099C82.8477 103.203 82.8411 103.307 82.8281 103.411C82.8151 103.509 82.8021 103.593 82.7891 103.665C82.776 103.756 82.763 103.834 82.75 103.899H76.3438C76.3698 104.179 76.4512 104.446 76.5879 104.7C76.7246 104.954 76.8939 105.179 77.0957 105.374C77.304 105.563 77.5514 105.716 77.8379 105.833C78.1243 105.944 78.4271 105.999 78.7461 105.999C79.293 105.999 79.7259 105.882 80.0449 105.647C80.3704 105.413 80.6048 105.198 80.748 105.003H82.6523ZM78.6484 100.198C78.0495 100.198 77.5417 100.403 77.125 100.813C76.7148 101.217 76.4544 101.748 76.3438 102.405H81.1484C81.0443 101.754 80.7773 101.224 80.3477 100.813C79.9245 100.403 79.3581 100.198 78.6484 100.198ZM90.1523 107.601L86.6465 103.304V107.601H84.8496V98.5967H86.6465V102.503L89.752 98.5967H91.8516L88.3555 102.796L92.3496 107.601H90.1523ZM92.4473 98.5967H99.8398V100.296H97.0469V107.601H95.2402V100.296H92.4473V98.5967Z" fill="#1B1818"/> <path d="M71.985 33.7803C71.362 33.7903 70.86 34.2973 70.86 34.9223C70.86 34.9283 70.86 34.9333 70.86 34.9393V34.9383V55.0183L63.674 47.8323C63.467 47.6253 63.182 47.4983 62.867 47.4983C62.236 47.4983 61.725 48.0103 61.725 48.6403C61.725 48.9563 61.853 49.2413 62.06 49.4483L71.195 58.5833C71.198 58.5863 71.203 58.5903 71.208 58.5943L71.21 58.5963C71.221 58.6073 71.233 58.6183 71.245 58.6293L71.246 58.6303C71.261 58.6443 71.277 58.6573 71.293 58.6713L71.295 58.6733C71.303 58.6793 71.314 58.6873 71.325 58.6953L71.328 58.6973C71.343 58.7083 71.362 58.7223 71.382 58.7353L71.387 58.7383C71.397 58.7453 71.412 58.7543 71.428 58.7633L71.433 58.7663C71.445 58.7733 71.462 58.7833 71.48 58.7923L71.486 58.7953C71.495 58.8003 71.511 58.8083 71.527 58.8143L71.534 58.8173C71.544 58.8223 71.562 58.8303 71.58 58.8383L71.587 58.8413C71.598 58.8463 71.618 58.8523 71.638 58.8593L71.646 58.8613C71.654 58.8643 71.67 58.8703 71.686 58.8753L71.694 58.8773C71.705 58.8803 71.725 58.8863 71.745 58.8903L71.752 58.8913C71.762 58.8943 71.781 58.8983 71.799 58.9013L71.806 58.9023C71.817 58.9043 71.836 58.9073 71.855 58.9093L71.861 58.9103C71.875 58.9123 71.895 58.9143 71.915 58.9153H71.918C71.936 58.9163 71.956 58.9173 71.977 58.9173H71.978C71.986 58.9173 71.996 58.9183 72.005 58.9183C72.014 58.9183 72.024 58.9183 72.034 58.9173H72.033C72.068 58.9163 72.102 58.9143 72.135 58.9103L72.13 58.9113C72.139 58.9103 72.141 58.9093 72.144 58.9093L72.137 58.9103C72.167 58.9063 72.191 58.9023 72.215 58.8973L72.208 58.8983C72.234 58.8933 72.252 58.8893 72.27 58.8853L72.262 58.8873C72.284 58.8823 72.299 58.8783 72.313 58.8743L72.305 58.8763C72.336 58.8673 72.359 58.8603 72.381 58.8533L72.373 58.8553C72.395 58.8483 72.408 58.8423 72.422 58.8373L72.415 58.8403C72.443 58.8293 72.463 58.8213 72.482 58.8113L72.475 58.8143C72.512 58.7973 72.54 58.7833 72.568 58.7683L72.562 58.7713C72.567 58.7683 72.568 58.7673 72.569 58.7663L72.565 58.7693C72.592 58.7543 72.613 58.7403 72.634 58.7263L72.63 58.7293C72.649 58.7163 72.664 58.7073 72.678 58.6963L72.675 58.6983C72.703 58.6773 72.727 58.6583 72.75 58.6383L72.749 58.6393C72.751 58.6373 72.754 58.6343 72.756 58.6323C72.775 58.6163 72.793 58.6013 72.809 58.5853L81.943 49.4513C82.157 49.2433 82.289 48.9533 82.289 48.6323C82.289 48.0013 81.778 47.4903 81.147 47.4903C81.135 47.4903 81.124 47.4903 81.112 47.4913H81.114C80.806 47.5003 80.529 47.6303 80.329 47.8353L73.144 55.0213V34.9413C73.144 34.9363 73.144 34.9313 73.144 34.9263C73.144 34.2953 72.633 33.7843 72.002 33.7843C71.996 33.7843 71.99 33.7843 71.984 33.7843H71.985V33.7803ZM57.158 63.4833C57.153 63.4833 57.148 63.4833 57.142 63.4833C56.511 63.4833 56 63.9943 56 64.6253C56 65.2563 56.512 65.7673 57.142 65.7673C57.148 65.7673 57.153 65.7673 57.159 65.7673H86.845C86.85 65.7673 86.855 65.7673 86.861 65.7673C87.492 65.7673 88.003 65.2563 88.003 64.6253C88.003 63.9943 87.492 63.4833 86.861 63.4833C86.855 63.4833 86.85 63.4833 86.844 63.4833H57.158Z" fill="black"/> </svg>

<svg xmlns="http://www.w3.org/2000/svg" width="144" height="144" fill="none"><circle cx="71.78" cy="71.78" r="71.78" fill="#FFD600"/><path d="M41.041 84.302c0 .677.117 1.302.352 1.875.234.573.54 1.07.917 1.494.385.417.82.742 1.31.976a3.523 3.523 0 001.523.352c.481 0 .914-.068 1.298-.205a3.375 3.375 0 001.026-.586 3.25 3.25 0 00.723-.86 4.25 4.25 0 00.449-1.044h2.002a6.25 6.25 0 01-.703 1.699 5.605 5.605 0 01-1.192 1.406 5.595 5.595 0 01-1.611.947 5.613 5.613 0 01-1.992.342 5.56 5.56 0 01-2.295-.488 5.96 5.96 0 01-1.905-1.357 6.72 6.72 0 01-1.308-2.032 6.437 6.437 0 01-.488-2.52c0-.891.162-1.728.488-2.509a6.688 6.688 0 011.308-2.041 5.959 5.959 0 011.905-1.357 5.567 5.567 0 012.295-.489c.69 0 1.334.117 1.933.352a5.069 5.069 0 011.592.947c.462.397.853.863 1.172 1.397.325.533.56 1.1.703 1.699h-2.002a4.259 4.259 0 00-.45-1.045 3.296 3.296 0 00-.722-.86 3.172 3.172 0 00-.986-.576 3.42 3.42 0 00-1.24-.215c-.521 0-1.03.118-1.524.352a4.102 4.102 0 00-1.309.977 4.982 4.982 0 00-.917 1.494 4.905 4.905 0 00-.352 1.875zM57.838 90.6l-3.506-4.297V90.6h-1.797v-9.004h1.797v3.906l3.105-3.906h2.1l-3.496 4.199 3.994 4.805h-2.197zm6.69-9.102c.52 0 .995.085 1.425.254.436.163.807.387 1.113.674a3.089 3.089 0 01.967 2.275V90.6h-1.299l-.4-.899a2.803 2.803 0 01-.625.498c-.215.13-.485.248-.81.352a4.113 4.113 0 01-1.172.146c-1.003 0-1.771-.247-2.305-.742-.527-.501-.791-1.152-.791-1.953 0-.456.084-.866.254-1.23.175-.372.472-.684.888-.938.424-.26.993-.462 1.71-.605.722-.15 1.637-.225 2.744-.225v-.303c0-.456-.144-.82-.43-1.094-.287-.273-.71-.41-1.27-.41-.599 0-1.035.108-1.308.323-.274.214-.436.475-.489.78h-1.796c.052-.8.387-1.467 1.006-2.001.618-.534 1.48-.801 2.587-.801zm-.694 7.598c.762 0 1.35-.196 1.768-.586.416-.39.625-.866.625-1.426v-.488c-.801 0-1.449.039-1.944.117-.488.072-.872.172-1.152.303-.28.123-.469.28-.566.468a1.355 1.355 0 00-.137.616c0 .254.12.485.361.693.24.202.59.303 1.045.303zm13.594-7.5V90.6H75.63v-3.204a5.12 5.12 0 01-.723.303c-.228.078-.495.15-.8.215a5.188 5.188 0 01-.977.088 3.63 3.63 0 01-1.309-.225 2.82 2.82 0 01-1.006-.674 3.151 3.151 0 01-.654-1.035 3.764 3.764 0 01-.234-1.367v-3.105h1.806v3.105c0 .508.16.918.479 1.23.319.313.758.47 1.318.47.306 0 .586-.03.84-.088a5.15 5.15 0 00.664-.215c.228-.079.427-.18.596-.303v-4.2h1.797zm5.908-.098c.52 0 .996.085 1.426.254.436.163.807.387 1.113.674a3.089 3.089 0 01.967 2.275V90.6h-1.299l-.4-.899a2.803 2.803 0 01-.625.498c-.215.13-.485.248-.811.352a4.113 4.113 0 01-1.172.146c-1.002 0-1.77-.247-2.304-.742-.528-.501-.791-1.152-.791-1.953 0-.456.084-.866.253-1.23.176-.372.472-.684.889-.938.423-.26.993-.462 1.709-.605.723-.15 1.637-.225 2.744-.225v-.303c0-.456-.143-.82-.43-1.094-.286-.273-.71-.41-1.27-.41-.598 0-1.034.108-1.308.323-.273.214-.436.475-.488.78h-1.797c.052-.8.388-1.467 1.006-2.001.618-.534 1.481-.801 2.588-.801zm-.693 7.598c.761 0 1.35-.196 1.767-.586a1.88 1.88 0 00.625-1.426v-.488c-.8 0-1.448.039-1.943.117-.489.072-.873.172-1.153.303-.28.123-.468.28-.566.468a1.357 1.357 0 00-.137.616c0 .254.12.485.362.693.24.202.589.303 1.045.303zm5.4-7.5h7.392v1.699h-2.792V90.6h-1.807v-7.305h-2.793v-1.7zm12.9 3.008c.456 0 .873.078 1.25.234a2.78 2.78 0 011.621 1.572c.157.365.235.762.235 1.192 0 .43-.078.826-.235 1.19a2.781 2.781 0 01-.634.948 3.037 3.037 0 01-.987.635 3.36 3.36 0 01-1.25.225h-3.994v-9.004h1.797v3.008h2.197zm0 4.296c.345 0 .648-.13.909-.39.266-.26.4-.563.4-.908 0-.346-.13-.648-.391-.909-.26-.26-.566-.39-.918-.39h-2.197V88.9h2.197zm-48.994 9.696v9.004h-1.797v-7.305h-4.306v7.305h-1.797v-9.004h7.9zm6.69-.098a4.146 4.146 0 013.046 1.299c.398.403.707.885.928 1.445a5.01 5.01 0 01.332 1.856 5.07 5.07 0 01-.332 1.865 4.379 4.379 0 01-.928 1.455c-.39.404-.846.719-1.367.947-.52.222-1.08.332-1.68.332-.429 0-.797-.049-1.103-.146a3.154 3.154 0 01-.771-.352 3.227 3.227 0 01-.625-.498v4.102h-1.797V98.597h1.299l.4.908c.176-.189.38-.358.615-.508a4.73 4.73 0 01.81-.332c.326-.11.717-.166 1.173-.166zm-.098 7.5c.345 0 .674-.068.986-.205a2.57 2.57 0 00.83-.606 3.083 3.083 0 00.781-2.089c0-.43-.07-.821-.214-1.172a2.856 2.856 0 00-.567-.918 2.47 2.47 0 00-.83-.596 2.344 2.344 0 00-.986-.215 2.41 2.41 0 00-.996.215 2.47 2.47 0 00-.83.596 3.07 3.07 0 00-.567.928 3.175 3.175 0 00-.205 1.162c0 .429.069.82.205 1.172.144.351.332.657.567.917.24.261.517.463.83.606.319.137.651.205.996.205zm12.607-2.9c0-.43-.071-.821-.214-1.172a3.056 3.056 0 00-.547-.918 2.3 2.3 0 00-.801-.596 2.193 2.193 0 00-.938-.215c-.319 0-.631.072-.937.215a2.3 2.3 0 00-.8.596 3.18 3.18 0 00-.558.928 3.175 3.175 0 00-.205 1.162c0 .429.069.82.206 1.172.143.351.328.657.556.917a2.272 2.272 0 001.738.811c.32 0 .632-.068.938-.205.306-.143.573-.345.8-.606.229-.26.41-.566.548-.917.143-.352.214-.743.214-1.172zm1.797 0a5.07 5.07 0 01-.332 1.865 4.257 4.257 0 01-.918 1.455c-.39.404-.846.719-1.367.947-.52.222-1.08.332-1.68.332-.599 0-1.158-.11-1.68-.332a4.367 4.367 0 01-1.376-.947 4.462 4.462 0 01-.918-1.455 5.171 5.171 0 01-.322-1.865c0-.677.107-1.296.322-1.856a4.295 4.295 0 012.295-2.402 4.145 4.145 0 011.68-.342 4.145 4.145 0 013.046 1.299c.397.403.703.885.918 1.445a5.01 5.01 0 01.332 1.856zm9.707 1.904c-.15.371-.338.719-.566 1.045a3.947 3.947 0 01-.82.859 3.76 3.76 0 01-1.114.586 4.49 4.49 0 01-1.406.205 4.24 4.24 0 01-1.68-.332 4.255 4.255 0 01-1.367-.947 4.462 4.462 0 01-.918-1.455 5.035 5.035 0 01-.332-1.865c0-.677.11-1.296.332-1.856a4.52 4.52 0 01.899-1.445 3.98 3.98 0 011.338-.957 3.982 3.982 0 011.63-.342c.573 0 1.117.114 1.631.342.515.228.96.547 1.338.957.378.403.677.885.899 1.445.221.56.332 1.179.332 1.856 0 .104-.007.208-.02.312a5.548 5.548 0 01-.039.254 4.453 4.453 0 01-.039.234h-6.406c.026.28.107.547.244.801s.306.479.508.674c.208.189.455.342.742.459.286.111.59.166.908.166.547 0 .98-.117 1.299-.352.325-.234.56-.449.703-.644h1.904zm-4.004-4.805a2.09 2.09 0 00-1.523.615c-.41.404-.67.935-.781 1.592h4.804c-.104-.651-.37-1.181-.8-1.592-.424-.41-.99-.615-1.7-.615zm11.504 7.403l-3.505-4.297v4.297H84.85v-9.004h1.797v3.906l3.105-3.906h2.1l-3.496 4.199 3.994 4.805h-2.198zm2.295-9.004h7.393v1.699h-2.793v7.305H95.24v-7.305h-2.793v-1.7z" fill="#1B1818"/><path d="M71.985 33.78a1.143 1.143 0 00-1.125 1.142V55.02l-7.186-7.187a1.142 1.142 0 00-1.614 1.616l9.135 9.135.013.011.002.002.035.033.001.001.047.041.002.002.03.022.003.002.054.038.005.003.041.025.005.003.047.026.006.003a.33.33 0 00.041.02l.007.002.046.021.007.003c.011.005.031.011.051.018l.008.002a.776.776 0 00.04.014l.008.002c.011.003.031.01.051.013l.007.001.047.01.007.001.049.007.006.001a.629.629 0 00.054.005h.003l.059.002h.001l.027.001h.029-.001c.035-.002.069-.004.102-.008l-.005.001c.009 0 .011-.002.014-.002l-.007.001.078-.013-.007.001.062-.013-.008.002a.905.905 0 00.051-.013l-.008.002.076-.023-.008.002c.022-.007.035-.013.049-.018l-.007.003a.664.664 0 00.067-.029l-.007.003c.037-.017.065-.03.093-.046l-.006.003.007-.005-.004.003c.027-.015.048-.029.069-.043l-.004.003c.019-.013.034-.022.048-.033l-.003.002a.984.984 0 00.075-.06l-.001.001.007-.007c.019-.016.037-.03.053-.047l9.134-9.134a1.142 1.142 0 00-.796-1.961l-.035.001h.002a1.14 1.14 0 00-.785.344l-7.185 7.186V34.927c0-.63-.511-1.142-1.142-1.142h-.018.001v-.004zM57.158 63.483h-.016a1.142 1.142 0 100 2.284h29.719a1.142 1.142 0 100-2.284H57.158z" fill="#000"/></svg>
